assets/icons/thumbs_up.svg

<svg width="19" height="17" viewBox="0 0 19 17" fill="none" xmlns="http://www.w3.org/2000/svg">
    <path d="M18.3419 8.34999C18.3419 7.5749 17.8169 6.89982 17.1168 6.67479C17.0418 6.62478 16.9418 6.59978 16.8418 6.59978H16.5917H16.3417H12.6663C12.5912 6.59978 12.5412 6.54977 12.5162 6.52477C12.4912 6.49977 12.4662 6.42476 12.5162 6.34975C12.7663 5.8997 13.1913 5.47465 13.1913 5.44964C13.2163 5.42464 13.2413 5.39964 13.2413 5.37463C13.8914 4.37451 13.8914 3.32439 13.7914 2.5993C13.6664 1.79921 13.1913 1.14913 12.5162 0.799086C11.9412 0.524054 11.5161 0.624065 11.2411 0.774083C10.491 1.19913 10.341 2.32427 10.316 2.5493C10.116 3.74944 9.36586 4.14949 9.34086 4.17449C7.79068 4.94958 6.99058 6.82481 6.86556 7.14985C6.56553 7.6499 6.21549 7.89993 5.96546 7.99995C5.79044 7.6249 5.41539 7.37487 4.96534 7.37487H1.93998C1.3399 7.34987 0.839844 7.84993 0.839844 8.45V15.5008C0.839844 16.1009 1.3399 16.601 1.93998 16.601H4.99034C5.31538 16.601 5.59041 16.451 5.79044 16.2509C6.01546 16.426 6.26549 16.551 6.46552 16.601C6.51552 16.601 6.54053 16.626 6.59053 16.626H13.5914H15.3416H16.0917C16.9168 16.626 17.5918 15.9509 17.5918 15.1258C17.5918 14.8008 17.4918 14.5007 17.3168 14.2507C17.6419 13.9757 17.8419 13.5756 17.8419 13.1256V12.8755C17.8419 12.5505 17.7419 12.2505 17.5668 12.0004C17.8919 11.7254 18.0919 11.3253 18.0919 10.8753V10.6253C18.0919 10.2752 17.9669 9.92518 17.7669 9.67515C18.1169 9.3251 18.3419 8.87505 18.3419 8.34999ZM5.09035 15.5008C5.09035 15.5508 5.04035 15.6009 4.99034 15.6009H1.93998C1.88997 15.6009 1.83996 15.5508 1.83996 15.5008V8.45C1.83996 8.39999 1.88997 8.34999 1.93998 8.34999H4.99034C5.04035 8.34999 5.09035 8.39999 5.09035 8.45V8.60002V14.7257V15.5008ZM17.0918 10.6003V10.8503C17.0918 11.1253 16.8668 11.3503 16.5917 11.3503H16.3417H16.0917H15.8416C15.5666 11.3503 15.3416 11.5754 15.3416 11.8504C15.3416 12.1254 15.5666 12.3505 15.8416 12.3505H16.0917H16.3417C16.6167 12.3505 16.8418 12.5755 16.8418 12.8505V13.1006C16.8418 13.3756 16.6167 13.6006 16.3417 13.6006H16.0917H15.8416H15.5916C15.3166 13.6006 15.0915 13.8256 15.0915 14.1007C15.0915 14.3757 15.3166 14.6007 15.5916 14.6007H15.8416H16.0917C16.3667 14.6007 16.5917 14.8258 16.5917 15.1008C16.5917 15.3758 16.3667 15.6009 16.0917 15.6009H15.3416H13.5914H6.66554C6.51552 15.5508 6.09047 15.3508 6.09047 14.7257V9.00007C6.54053 8.85005 7.21561 8.50001 7.76567 7.5999C7.79068 7.5749 7.79068 7.54989 7.81568 7.52489C7.81568 7.49989 8.51576 5.69967 9.81592 5.04959C9.86592 5.02459 11.0411 4.42452 11.3411 2.67431V2.64931C11.3661 2.29927 11.5411 1.7742 11.7411 1.64919C11.8162 1.59918 11.9162 1.62418 12.0662 1.69919C12.4412 1.89922 12.7163 2.27426 12.7913 2.74932C12.8663 3.29939 12.8913 4.07448 12.4162 4.79956C12.2912 4.92458 11.8662 5.39964 11.5911 5.87469C11.3911 6.24974 11.3911 6.67479 11.6161 7.04983C11.8162 7.39987 12.1912 7.6249 12.6163 7.6249H16.3417H16.5917C17.0168 7.6249 17.3418 7.94994 17.3418 8.37499C17.3418 8.80004 17.0168 9.12508 16.5917 9.12508H16.3417H15.8416C15.5666 9.12508 15.3416 9.35011 15.3416 9.62514C15.3416 9.90017 15.5666 10.1252 15.8416 10.1252H16.3417H16.5917C16.8668 10.1002 17.0918 10.3252 17.0918 10.6003Z" fill="white" stroke="white" stroke-width="0.2"/>
</svg>

<svg width="19" height="17" fill="none" xmlns="http://www.w3.org/2000/svg"><path d="M18.342 8.35a1.78 1.78 0 0 0-1.225-1.675.504.504 0 0 0-.275-.075h-4.176c-.075 0-.125-.05-.15-.075-.025-.025-.05-.1 0-.175.25-.45.675-.875.675-.9.025-.025.05-.05.05-.075.65-1 .65-2.05.55-2.776A2.42 2.42 0 0 0 12.516.8c-.575-.275-1-.175-1.275-.025-.75.425-.9 1.55-.925 1.775-.2 1.2-.95 1.6-.975 1.625-1.55.776-2.35 2.65-2.475 2.976-.3.5-.65.75-.9.85a1.086 1.086 0 0 0-1-.625H1.94C1.34 7.35.84 7.85.84 8.45v7.05c0 .6.5 1.101 1.1 1.101h3.05c.325 0 .6-.15.8-.35.225.175.475.3.676.35.05 0 .075.025.125.025h9.5a1.505 1.505 0 0 0 1.226-2.375c.325-.275.525-.675.525-1.125v-.25c0-.325-.1-.625-.275-.876.325-.275.525-.675.525-1.125v-.25c0-.35-.125-.7-.325-.95.35-.35.575-.8.575-1.325ZM5.09 15.5c0 .05-.05.1-.1.1H1.94c-.05 0-.1-.05-.1-.1V8.45c0-.05.05-.1.1-.1h3.05c.05 0 .1.05.1.1V15.501Zm12.002-4.9v.25c0 .275-.225.5-.5.5h-.75c-.275 0-.5.225-.5.5s.225.5.5.5h.5c.275 0 .5.226.5.5v.25c0 .276-.225.5-.5.5h-.75c-.275 0-.5.226-.5.5 0 .276.225.5.5.5h.5c.275 0 .5.226.5.5 0 .276-.225.5-.5.5H6.666c-.15-.05-.576-.25-.576-.874V9c.45-.15 1.126-.5 1.676-1.4.025-.025.025-.05.05-.075 0-.025.7-1.825 2-2.475.05-.025 1.225-.625 1.525-2.376V2.65c.025-.35.2-.875.4-1 .075-.05.175-.025.325.05.375.2.65.575.725 1.05.075.55.1 1.325-.375 2.05-.125.126-.55.6-.825 1.076-.2.375-.2.8.025 1.175.2.35.575.575 1 .575h3.976c.425 0 .75.325.75.75s-.325.75-.75.75h-.75c-.275 0-.5.225-.5.5s.225.5.5.5h.75c.275-.025.5.2.5.475Z" fill="#fff" stroke="#fff" stroke-width=".2"/></svg>
